24x24/apps/albert.svg

<svg xmlns="http://www.w3.org/2000/svg" width="24" height="24" version="1">
 <rect style="opacity:0.2" width="20" height="20" x="2" y="2.5" rx="1" ry="1"/>
 <rect style="fill:#4f4f4f" width="20" height="20" x="2" y="2" rx="1" ry="1"/>
 <path style="opacity:0.1;fill:#f4f4f7" d="M 3,2 C 2.446,2 2,2.446 2,3 v 0.5 c 0,-0.554 0.446,-1 1,-1 h 18 c 0.554,0 1,0.446 1,1 V 3 C 22,2.446 21.554,2 21,2 Z"/>
 <path style="opacity:0.2" d="m 19.674024,13.323507 c -2.023458,2.534862 -0.06321,0.110769 -1.997166,2.547928 -0.673235,0.402817 -1.9076,0.707113 -2.465659,0.591265 -0.782284,-0.117994 -1.639539,-0.994252 -2.268287,-1.861932 -0.795411,-1.098035 -1.378105,-2.631977 -2.184233,-3.574437 -0.747992,-0.874445 -1.8113083,-1.4121895 -2.8215795,-0.702337 -0.499376,0.351356 -0.9869639,0.983422 -1.3649786,1.659829 -0.6038587,1.079621 -0.2546618,2.483236 1.3265164,2.789497 1.2443129,0.107184 1.8742374,-0.06004 3.5248397,-0.79577 2.127834,-0.997322 3.64396,-2.30124 7.695033,-5.3764543 -2.262898,2.3499713 -0.118098,0.060414 -2.336919,2.3963683 -1.126795,1.186279 -3.382934,2.54232 -5.749916,3.922343 -1.121747,0.643376 -2.1076119,1.052941 -3.5494795,1.404333 -0.8629231,0.21044 -2.1335984,0.405432 -2.4119519,-0.510311 -0.289874,-0.954485 0.4018582,-2.426085 0.5459911,-2.745086 1.087696,-2.40538 2.7120066,-4.9028268 5.5520723,-4.5319308 2.708523,0.3539871 2.836287,4.5796318 4.857901,5.6900668 0.995509,0.546725 1.738039,0.09587 3.647816,-0.903372 z"/>
 <path style="fill:#00dada" d="m 19.674024,12.823507 c -2.023458,2.534862 -0.06321,0.110769 -1.997166,2.547928 -0.673235,0.402817 -1.9076,0.707113 -2.465659,0.591265 C 14.428915,15.844706 13.57166,14.968448 12.942912,14.100768 12.147501,13.002733 11.564807,11.468791 10.758679,10.526331 10.010687,9.6518859 8.9473707,9.1141417 7.9370995,9.8239939 7.4377235,10.17535 6.9501356,10.807416 6.5721209,11.483823 c -0.6038587,1.079621 -0.2546618,2.483236 1.3265164,2.789497 1.2443129,0.107184 1.8742374,-0.06004 3.5248397,-0.79577 2.127834,-0.997322 3.64396,-2.30124 7.695033,-5.3764541 -2.262898,2.3499711 -0.118098,0.060414 -2.336919,2.3963681 -1.126795,1.186279 -3.382934,2.54232 -5.749916,3.922343 -1.121747,0.643376 -2.1076119,1.052941 -3.5494795,1.404333 -0.8629231,0.21044 -2.1335984,0.405432 -2.4119519,-0.510311 -0.289874,-0.954485 0.4018582,-2.426085 0.5459911,-2.745086 1.087696,-2.40538 2.7120066,-4.9028266 5.5520723,-4.5319306 2.708523,0.3539871 2.836287,4.5796316 4.857901,5.6900666 0.995509,0.546725 1.738039,0.09587 3.647816,-0.903372 z"/>
 <path style="fill:#f4f4f7;opacity:0.2" d="M 10.650391 8 C 8.1278132 7.9775776 6.6369025 10.313316 5.6171875 12.568359 C 5.4875368 12.855308 4.9203824 14.072873 5.0175781 15.009766 C 5.1007748 14.183428 5.5098594 13.305902 5.6171875 13.068359 C 6.7048835 10.662979 8.3279031 8.1662134 11.167969 8.5371094 C 12.91528 8.7654721 13.592012 10.598734 14.392578 12.173828 C 15.108868 11.659796 16.229716 10.799876 17.224609 10.037109 C 17.920815 9.3130434 17.292445 9.998547 19.119141 8.1015625 C 16.994521 9.714385 15.576613 10.824128 14.392578 11.673828 C 13.592012 10.098734 12.91528 8.2654721 11.167969 8.0371094 C 10.990465 8.0139284 10.818562 8.0014948 10.650391 8 z M 14.875 12.529297 C 14.802817 12.579264 14.738295 12.62745 14.664062 12.677734 C 15.035255 13.335756 15.451129 13.911131 16.025391 14.226562 C 16.888415 14.700528 17.607532 14.396891 19.015625 13.664062 C 19.098988 13.55451 19.00659 13.660092 19.673828 12.824219 C 17.764051 13.823461 17.0209 14.273288 16.025391 13.726562 C 15.556507 13.469014 15.195956 13.034831 14.875 12.529297 z M 6.3144531 12.779297 C 6.2064003 13.662033 6.6883191 14.539048 7.8984375 14.773438 C 9.1427504 14.880622 9.7732258 14.714246 11.423828 13.978516 C 11.719451 13.839956 12.002756 13.691432 12.283203 13.537109 C 12.211636 13.409101 12.14257 13.280042 12.072266 13.150391 C 11.859632 13.263005 11.646235 13.374273 11.423828 13.478516 C 9.7732258 14.214246 9.1427504 14.380622 7.8984375 14.273438 C 6.9197437 14.083873 6.415303 13.47264 6.3144531 12.779297 z"/>
</svg>

<svg xmlns="http://www.w3.org/2000/svg" width="24" height="24" version="1"><rect style="opacity:.2" width="20" height="20" x="2" y="2.5" rx="1" ry="1"/><rect style="fill:#4f4f4f" width="20" height="20" x="2" y="2" rx="1" ry="1"/><path style="opacity:.1;fill:#f4f4f7" d="M3 2c-.554 0-1 .446-1 1v.5c0-.554.446-1 1-1h18c.554 0 1 .446 1 1V3c0-.554-.446-1-1-1z"/><path style="opacity:.2" d="M19.674 13.324c-2.023 2.534-.063.11-1.997 2.547-.673.403-1.908.708-2.466.592-.782-.118-1.64-.995-2.268-1.862-.795-1.098-1.378-2.632-2.184-3.575-.748-.874-1.812-1.412-2.822-.702-.5.351-.987.983-1.365 1.66-.604 1.08-.255 2.483 1.327 2.79 1.244.107 1.874-.06 3.524-.796 2.128-.998 3.644-2.302 7.696-5.377-2.263 2.35-.119.06-2.337 2.396-1.127 1.187-3.383 2.543-5.75 3.923-1.122.643-2.108 1.053-3.55 1.404-.863.21-2.133.406-2.412-.51-.29-.955.402-2.426.546-2.745 1.088-2.406 2.712-4.903 5.552-4.532 2.709.354 2.837 4.58 4.858 5.69.996.547 1.738.096 3.648-.903z"/><path style="fill:#00dada" d="M19.674 12.824c-2.023 2.534-.063.11-1.997 2.547-.673.403-1.908.708-2.466.592-.782-.118-1.64-.995-2.268-1.862-.795-1.098-1.378-2.632-2.184-3.575-.748-.874-1.812-1.412-2.822-.702-.5.351-.987.983-1.365 1.66-.604 1.08-.255 2.483 1.327 2.79 1.244.107 1.874-.06 3.524-.796 2.128-.998 3.644-2.302 7.696-5.377-2.263 2.35-.119.06-2.337 2.396-1.127 1.187-3.383 2.543-5.75 3.923-1.122.643-2.108 1.053-3.55 1.404-.863.21-2.133.406-2.412-.51-.29-.955.402-2.426.546-2.745 1.088-2.406 2.712-4.903 5.552-4.532 2.709.354 2.837 4.58 4.858 5.69.996.547 1.738.096 3.648-.903z"/><path style="fill:#f4f4f7;opacity:.2" d="M10.65 8c-2.522-.022-4.013 2.313-5.033 4.568-.13.287-.697 1.505-.6 2.442.084-.827.493-1.704.6-1.942 1.088-2.405 2.71-4.902 5.551-4.53 1.747.227 2.424 2.06 3.225 3.636.716-.514 1.837-1.374 2.832-2.137.696-.724.067-.038 1.894-1.935-2.124 1.612-3.542 2.722-4.726 3.572-.801-1.575-1.478-3.409-3.225-3.637A4.284 4.284 0 0 0 10.65 8zm4.225 4.53-.21.148c.37.658.786 1.233 1.36 1.549.863.474 1.583.17 2.99-.563.084-.11-.008-.004.659-.84-1.91 1-2.653 1.45-3.649.903-.468-.258-.829-.692-1.15-1.198zm-8.56.25c-.109.882.373 1.759 1.583 1.993 1.245.108 1.875-.059 3.526-.794.295-.139.579-.288.86-.442-.072-.128-.141-.257-.212-.387-.212.113-.426.224-.648.329-1.65.735-2.281.902-3.526.794-.978-.19-1.483-.8-1.584-1.494z"/></svg>
